X:1
T:S'a sospir finti
T:S'a sospir finti
T:Giovanni Felice Sances
T:Source :  Cantate et arie a voce sola---Libro IV---Venetia---A.Vincenti---1636. Editor : André Vierendeels (30/03/15).
T:Notes : Original clefs : C1, F4 Editorial accidentals above the staff BC: "alfabetto per la chitarra alla spagnola" realised by the editor Square brackets indicate ligatures Dotted brackets indicate black notes 3/2 notated in 3/1 in original print
C:Giovanni Felice Sances
%%score 1 { ( 2 4 ) | 3 }
L:1/8
Q:1/4=96
M:4/4
K:C
V:1 treble nm="Canto" snm="C"
V:2 treble nm="BC" snm="BC"
V:4 treble 
V:3 bass 
V:1
 z DDC D2 D2 | EE E>D F2 F2 | z2 FF G2 GG | A2 A2 e2 ^cA | E3 E F4 | F2 A>_B G2 GF | E4 D4 | %7
w: S'a so- spir fin- ti,|s'a men- ti- ti pian- ti,|s'a sper- giu- ri men-|di- ci, ca- don gl'in-|can- ti'A- man-|ti nel- le re- ti fal-|la- ci,|
w: Fol- l'e chi spe- ra,|di gio- ir be- a- to,|di sua Don- na l'A-|mo- re, chi non vi-|ve le- ga-|to, e pa- dron del suo|co- re,|
w: Io ben mi'a- cor- si,|mal' sa- per fu tar- do|che cor- re- v'al- la|mor- te, ho- ra che|piu non ar-|do, go- do fe- li- ce|for- te,|
[M:3/2] z4 A8 | A12- | A12 | A4 A4 ^G4 | A8 B4 | B12- | B12- | B12- | B8 B4 | B12 | A4 G6 F2 | %18
w: all'|hor|_|pro- van d'A-|mor il|gra-|||* ve'af-|fan-|no chi v'in-|
w: non|si|_|dol- ga quel|cors che|sa|_||* l'in-|gan-|no, se ri-|
w: ri-|ti-||ro'il pie dal|per- fi-|do|_||* Ti-|ran-|no, se mi|
 E4 F4 E4 | D12 | C12 | z4 c4 B4 | B12 | A12 | z4 f4 e4 | e12 | d4 c6 B2 | A2 G2 A2 B2 c2 d2 | %28
w: ciam- pa suo|dan-|no,|suo _|dan-|no,|suo _|dan-|no, chi v'in-|ciam- * * * * *|
w: tro- va'il man|an-|no,|man _|an-|no,|man _|an-|no, se ri-|tro- * * * * *|
w: co- glie mio|dan-|no,|mio _|dan-|no,|mio _|dan-|no, se mi|co- * * * * *|
 B2 c2 B2 A2 G2 F2 | E4 c4 B4 | A12 | G12 |] %32
w: |* pa suo|dan-|no.|
w: |* va'il man|an-|no.|
w: |* glie mio|dan-|no.|
V:2
 [D_B]8 | [E_B]4 [FA]4- | [FA]4 [G_B]4 | [EA]8 | [EA]4 [FA]4 | F4 G2 A2 | [E^c]4 [^FA]4 | %7
[M:3/2] [FA]12 | [EA]8 [FA]4 | [EA]8 F4 | A8 B4 | [Ec]8 [EB]4 | c8 B4 | [DA]8 [EG]4 | A12 | %15
 F4 [EG]4 A4 | [^GB]12 | [Ec]4 [DG]8 | [EG]4 [CA]8 | [DB]12 | c12 | [GB]4 [DF]8 | [B,^G]12 | %23
 [CE]12 | [FA]8 [EG]4 | [CE]12 | [^FA]12 | [DA]12 | [DB]12 | [EG]8 [GB]4 | [^Fd]8 c4 | [DB]12 |] %32
V:3
 G,,8 | G,,4 D,4- | D,4 D,4 | ^C,8 | ^C,4 D,4 | D,4 G,,4 | A,,4 D,4 |[M:3/2] z4 D,8 | ^C,8 D,4 | %9
 ^C,8 D,4 | ^C,4 B,,8 | A,,4 A,4 ^G,4 |"^-natural" A,8 G,4 | F,8 E,4 | D,8 ^C,4 | D,4 E,4 F,4 | %16
 E,12 | A,,4 B,,8 | C,4 F,,8 | G,,12 | C,8 D,4 | E,4 D,8 | E,12 | A,8 G,4 | F,8 G,4 | A,12 | %26
 D,8 E,4 | ^F,12 | G,8 G,,4 | C,12 | D,12 | G,,12 |] %32
V:4
 x8 | x8 | x8 | x8 | x8 | D4 D4 | x8 |[M:3/2] x12 | x12 | x12 | E4 D8 | x12 | E12 | x12 | F8 E4 | %15
 B,8 D4 | x12 | x12 | x12 | x12 | E8 F4 | x12 | x12 | x12 | x12 | x12 | x12 | x12 | x12 | x12 | %30
 =F12 | x12 |] %32

